X:1
T:Bruce's Address
T:Scottish traditional Arranged by William Walker, 1835 C Major        Alto by William Walker, 1867
T:Transcribed from Southern Harmony , 1835; and Christian Harmony, 1867.
T:Anonymous, 1828         77. 75. 77. 75.
%%score [ 1 2 3 4 ]
L:1/8
Q:1/4=150
M:6/4
K:C
V:1 treble nm="Tr." snm="Tr."
V:2 treble nm="C." snm="C."
V:3 treble-8 nm="T." snm="T."
V:4 bass nm="B." snm="B."
V:1
"_1. Soldiers  of   the  cross, a – rise:    Lo, your Captain from the skies       Holding forth the glittering prize,   Calls  to  vic  – to  –  ry:" c4 c2 c4 e2 | %1
 d4 c2 e6 | d4 d2 d4 e2 | c4 d2 e6 | c4 c2 d4 e2 | c4 G2 A6 | c4 c2 e4 d2 | c12 |: %8
"_1. Fear not, though the battle lower;    Firmly  stand  the  trying   hour;    Stand the tempter's utmost power,   Spurn  his  sla – ve – ry." A4 A2 A4 G2 | %9
 c4 d2 e6 | g4 g2 d4 e2 | d4 c2 c6 | d4 e2 g4 e2 | c4 G2 A6 | c4 c2 e4 d2 | c12 :| %16
V:2
"_2. Who the cause of Christ would yield?  Who would leave the battlefield? Who would cast away his shield?  Let  him  basely   go:\n3.  By   the  mercies   of  our  God,   By Emmanuel's streaming blood,  When   alone  for   us  he   stood,     Ne'er give up the strife:" E4 E2 E4 G2 | %1
 G4 E2 G6 | F4 F2 F4 G2 | E4 D2 E6 | E4 E2 D4 C2 | C4 G2 E6 | E4 E2 E4 D2 | E12 |: %8
"_2. Who for Zi – on's  King will stand?   Who will join the  faithful  band?  Let him come with heart and hand,  Let  him  face  the  foe.\n3. Ev – er,   to    the    la – test  breath,   Hark to what your Captain saith;   Be   thou  faithful   un – to   death;  Take  the  crown of life." c4 c2 c4 G2 | %9
 E4 D2 E6 | G4 G2 G4 G2 | G4 E2 F6 | G4 c2 B4 A2 | G4 G2 A6 | E4 E2 E4 D2 | E12 :| %16
V:3
"_4. By the woes which rebels prove,    By  the  bliss  of   ho – ly   love,    Sinners,  seek  the  joys  a – bove;     Sinners,  turn  and  live:" G4 G2 G4 E2 | %1
 G4 A2 c6 | A4 A2 A4 G2 | A4 B2 c6 | e4 f2 d4 e2 | c4 d2 e6 | c4 A2 A4 G2 | G12 |: %8
"_4. Here  is  freedom  worth the name;  Tyrant  sin   is     put  to  shame;  Grace inspires the hallowed flame;   God the crown will give." e4 e2 e4 d2 | %9
 e4 f2 g6 | d4 d2 d4 c2 | d4 e2 f6 | g4 e2 d4 e2 | c4 d2 e6 | c4 A2 A4 G2 | G12 :| %16
V:4
 C,4 C,2 C,4 E,2 | G,4 E,2 C,6 | D,4 D,2 D,4 E,2 | A,4 G,2 G,6 | A,4 G,2 G,4 A,2 | C4 G,2 E,6 | %6
 C,4 E,2 A,4 G,2 | C,12 |: E,4 E,2 E,4 G,2 | A,4 G,2 G,6 | D,4 D,2 D,4 E,2 | G,4 E,2 F,6 | %12
 G,4 A,2 G,4 A,2 | %13
"________________________________________________________________________________________________________________________\nWalker's arrangement of this Scottish traditional tune for three parts was included in \nThe Sacred Harp\n, p. 152, from 1844 through 1911.  It was \n   also arranged by William Hauser in his Hesperian Harp, 1848." C4 G,2 E,6 | %14
 C,4 E,2 A,4 G,2 | C,12 :| %16

